X: 110
T: Roundy's Contra Dance I-1
C: A. F. Roundy
M: 6/8
L: 1/8
K: G
|: "G" v.g z z vg2 f | "C" efg "G" d2 z | "C" efg efg | "A7" aeg "D7" fed |
"G" v.g z z v.g2 f | "C" efg "G" d2 z | "A7" efg "D7" aba | "G" g2 z g3 :|
|: "Em" (e2 f) (g2 a) | .bz(B, !>!C2 .B,) | (e2 f) (g2 a) | "B7" bc'b a!2!gf | "Em" (e2 f) (g2 a) |
"Em" .bz(B, !>!C2 .B,) | "B7" bc'b a!2!gf |1 "Em" e2 z e3 :|2 "Em" e2 z !>!f3 |]

